X: 20112
T: Jimmy Ward's
R: jig
M: 6/8
K: Gmajor
|:G2G GAB|AGE GED|~G2G AGE|GED DEF|
G3 GAB|AGE G2B|cBA AGE|1 DED DEF:|2 DED D2B||
|:cBA BAG|~A2A A2B|cBA AGE|DED D2B|cBA BAG|
~A2A ABc|1 dcA AGE|DED D2B:|2 ~d2d ded|~d2d ded||

